X:1
T:Ah! how Sophia can you leave?
T:John Wall Callcott (1766-1821)
T:Ah! how Sophia can you leave?
T:A catch
T:Copyright © 
T:Copyright © 
T:Copyright © 
C:John Wall Callcott (1766-1821)
Z:Copyright ©
%%score [ 1 2 3 ]
L:1/8
M:4/4
K:F
V:1 treble transpose=-12 nm="P1"
V:2 treble transpose=-12 nm="P2"
V:3 treble transpose=-12 nm="P3"
V:1
"^Slowly" f4 A2 c2 | c2 B2 g2 B2 |{B} A4 c2 A2 |{A} G4 z2 c2 | c2 f2 z2 c2 | d2 f2 G2 B2 | %6
w: Ah! how So-|phi- a, can you|* can you|* your|lo- ver, your|lo- ver, and of|
 (A2 c2) (B2 G2) | F8 | z2 A2 F2 A2 | (A2 G2) (B2 G2) |{G} F4 (A2 F2) |{F} E4 z2 A2 | A4 A4 | %13
w: hope _ be- *|reave?|Go fetch the|In- * dian's _|_ rowed _|_ yet|rich- er|
 (B2 d2) (D2 G2) | (F2 A2) (G2 E2) | F8 | F4 F2 ^F2 | G2 D2 E2 C2 | F4 F2 F2 | C4 z4 | %20
w: far _ than _|that _ you _|bloom,|I'm but a|lod- ger in your|heart, in your|heart;|
 z2 F2 F2 F2 | B,4 B,4 | C4 C4 | F2"^Briskly" z2 z4 | z8 | F2 AF GC z2 | z4 D2 E^F | GG z2 C2 DE | %28
w: and more than|me I|fear have|part,||I'm but a lodg- er,|I'm but a|lodg- er, I'm but a|
 FF z2 c2 dB | cA z2 A2 BG | AF z2 (B,C)DE | F2 B,2 C2 C2 | F2 z2 z GcB | A2 z2 z eee | %34
w: lodg- er, I'm but a|lodg- er, I'm but a|lodg- er, I'm _ but a|lodg- er in her|heart, Ah how So|phia, Ah how So-|
 f2 z2 z eee | fccc c2 c2 | BBBB B2 B2 | Afff f2 f2 | ffff f2 f2 | fccc dddd | c2 (dB) A2 (BG) | %41
w: phia, Ah how So-|phia, ah how So- phia- phia-|phia, ah how So- phia- phia-|phia, ah how So- phia- phia-|phia, ah how So- phia- phia-|phia, ah how So- phia, ah how So-|phi- a _ can you _|
 !fermata!F2 z2 z4 |] %42
w: leave,|
V:2
 z8 | z8 | z8 | z8 | z8 | z8 | z8 | z8 | f4 A2 c2 | c2 B2 g2 B2 |{B} A4 c2 A2 |{A} G4 z2 c2 | %12
w: ||||||||Ah! how So-|phi- a, can you|* can you|* your|
 c2 f2 z2 c2 | d2 f2 G2 B2 | (A2 c2) (B2 G2) | F8 | z2 A2 F2 A2 | (A2 G2) (B2 G2) |{G} F4 (A2 F2) | %19
w: lo- ver, your|lo- ver, and of|hope _ be- *|reave?|Go fetch the|In- * dian's _|_ rowed _|
{F} E4 z2 A2 | A4 A4 | (B2 d2) (D2 G2) | (F2 A2) (G2 E2) | F2 A2 c2 E2 | F2 AF cGcB | AFcA BGcB | %26
w: _ yet|rich- er|far _ than _|that _ you _|bloom, go, go, go,|go fetch the In- dian's, fetch the|In- dian's, fetch the In- dian's, fetch the|
 AF z2 ^F2 GA | BG z2 E2 FG | AF z2 A2 BG | AF z2 c2 dB | cAAA BBBB | A2 (BG) F2 (GE) | F2 z2 z4 | %33
w: In- dian's, go fetch the|In- dian's go fetch the|In- dian's go fetch the|In- dian's go fetch the|In- dian's fetch the In- dian's fetch the|In- dian's _ bor- rowed _|plume.|
 z8 | F2 AF GC z2 | z4 D2 E^F | GG z2 C2 DE | FF z2 c2 dB | cA z2 A2 BG | AF z2 (B,C)DE | %40
w: |I'm but a lodg- er,|I'm but a|lodg- er, I'm but a|lodg- er, I'm but a|lodg- er, I'm but a|lodg- er, I'm _ but a|
 F2 B,2 C2 C2 | !fermata!F2 z2 z4 |] %42
w: lodg- er in her|heart,|
V:3
 z8 | z8 | z8 | z8 | z8 | z8 | z8 | z8 | z8 | z8 | z8 | z8 | z8 | z8 | z8 | z8 | f4 A2 c2 | %17
w: ||||||||||||||||Ah! how So-|
 c2 B2 g2 B2 |{B} A4 c2 A2 |{A} G4 z2 c2 | c2 f2 z2 c2 | d2 f2 G2 B2 | (A2 c2) (B2 G2) | %23
w: phi- a, can you|* can you|* your|lo- ver, your|lo- ver, and of|hope _ be- *|
 F2 z2 z GcB | A2 z2 z eee | f2 z2 z eee | fccc c2 c2 | BBBB B2 B2 | Afff f2 f2 | ffff f2 f2 | %30
w: reave? Ah how So-|phia, Ah how So-|phia, Ah how So-|phia, ah how So- phia- phia-|phia, ah how So- phia- phia-|phia, ah how So- phia- phia-|phia, ah how So- phia- phia-|
 fccc dddd | c2 (dB) A2 (BG) | F2 A2 c2 E2 | F2 AF cGcB | AFcA BGcB | AF z2 ^F2 GA | BG z2 E2 FG | %37
w: phia, ah how So- phia, ah how So-|phi- a _ can you _|leave, go, go, go|go fetch the In- dian's, fetch the|In- dian's, fetch the In- dian's, fetch the|In- dian's, go fetch the|In- dian's go fetch the|
 AF z2 A2 BG | AF z2 c2 dB | %39
w: In- dian's go fetch the|In- dian's go fetch the|
"^Note: From the \"Musical Times and Singing Class Circular, Vol. 5, No. 119, (Mar. 1, 1854), pp. 377- 379.The first note in the 1st part, bar  26, has been changed in this edition from E to F." cAAA BBBB | %40
w: In- dian's fetch the In- dian's fetch the|
 A2 (BG) F2 (GE) | !fermata!F2 z2 z4 |] %42
w: In- dian's _ bor- rowed _|plume.|

